X: 1
T:Bagatelle No.25 in A, WoO.59
C:Ludwig van Beethoven
V:1
V:2
M:3/8
L:1/16
Q:1/8=140
K:Am
(3_ba_a (3g_gf (3e_ed|(3_d'c'b (3_ba_b (3g_gf|e^deB=dc|A2 z CEA|
B2 z E^GB|c2 z Ee^d|e^deB=dc|A2 z CEA|B2 z EcB|
A2 z Bcd|e3 Gfe|d3 Fed|c3 Edc|B2 z Ee z|
z ee' z z ^d|e z z ^ded|e^deB=dc|A2 z CEA|B2 z E^GB|
c2 z Ee^d|e^deB=dc|A2 z CEA|B2 z DcB|[C4A4]|]